assets/people.svg

<svg viewBox="0 0 32 32" xmlns="http://www.w3.org/2000/svg"><g fill="#101820"><path d="m16 17a8 8 0 1 1 8-8 8 8 0 0 1 -8 8zm0-14a6 6 0 1 0 6 6 6 6 0 0 0 -6-6z"/><path d="m23 31h-14a5 5 0 0 1 -5-5v-4a1 1 0 0 1 .49-.86l5-3a1 1 0 0 1 1 1.72l-4.49 2.71v3.43a3 3 0 0 0 3 3h14a3 3 0 0 0 3-3v-3.43l-4.51-2.71a1 1 0 1 1 1-1.72l5 3a1 1 0 0 1 .51.86v4a5 5 0 0 1 -5 5z"/></g></svg>

<?xml version="1.0" ?><svg viewBox="0 0 32 32" xmlns="http://www.w3.org/2000/svg"><defs><style>.cls-1{fill:#101820;}</style></defs><title/><g data-name="Layer 19" id="Layer_19"><path class="cls-1" fill="#f9be51" d="M16,17a8,8,0,1,1,8-8A8,8,0,0,1,16,17ZM16,3a6,6,0,1,0,6,6A6,6,0,0,0,16,3Z"/><path class="cls-1" fill="#f9be51" d="M23,31H9a5,5,0,0,1-5-5V22a1,1,0,0,1,.49-.86l5-3a1,1,0,0,1,1,1.72L6,22.57V26a3,3,0,0,0,3,3H23a3,3,0,0,0,3-3V22.57l-4.51-2.71a1,1,0,1,1,1-1.72l5,3A1,1,0,0,1,28,22v4A5,5,0,0,1,23,31Z"/></g></svg>
